X:11617
T:N'Uviu nun me caso (CT 034)
R:Xiraldilla
C:Tradicional
S:Msica Tradicional Asturiana, (C) Tello & Tito. Asturies, 2001.
S:http://pagina.de/MusTradAst <telloytito@asturies.org>
N:Xiraldilla, transcrita en Uviu
O:Uviu
A:Asturies
Z:Cancioneru de Torner 034
M:3/8
L:1/8
Q:1/4=88
W:N'Uviu nun me caso
W:y en Xixn lo pongo en duda;
W:tengo de facer un palacio
W:xunta la fbrica Trubia.
W:
W:Que viva Grau,
W:que Grau viva,
W:que viva Grau
W:tola vida.
K:C
|BBA|G3|BBA|G3|BBc|d2c|d2c|B2 z|
|BBA|G3|BBA|G3|BBc|d2c|d2c||
BBB|c2B|AAA|B2A|GBB|c2B|AAA|B2A|G2z||!
